UI/Map-View/SVG/east_solid_16px.svg

<svg width="16" height="16" viewBox="0 0 16 16" fill="none" xmlns="http://www.w3.org/2000/svg">
<path d="M8 8.99998L5 7.99998L8 6.99998V8.99998ZM15 7.99998L8 4.99998L1 7.99998L8 11L15 7.99998ZM7.52 2.99998C7.85192 2.95662 8.18808 2.95662 8.52 2.99998C9.55764 3.09027 10.539 3.51085 11.32 4.19998L14.63 5.61998C14.1435 4.26184 13.2493 3.08717 12.0697 2.25668C10.8901 1.4262 9.48264 0.980469 8.04 0.980469C6.59736 0.980469 5.18995 1.4262 4.01032 2.25668C2.8307 3.08717 1.93648 4.26184 1.45 5.61998L4.72 4.22998C5.49704 3.52996 6.4788 3.09869 7.52 2.99998ZM14.59 10.32L11.28 11.74C10.5069 12.4509 9.52478 12.8929 8.48 13H8H7.52C6.48236 12.9097 5.50099 12.4891 4.72 11.8L1.41 10.35C1.89648 11.7081 2.7907 12.8828 3.97032 13.7133C5.14995 14.5438 6.55736 14.9895 8 14.9895C9.44264 14.9895 10.8501 14.5438 12.0297 13.7133C13.2093 12.8828 14.1035 11.7081 14.59 10.35V10.32Z" fill="#0F1621"/>
</svg>

<svg xmlns="http://www.w3.org/2000/svg" width="16" height="16" viewBox="0 0 16 16"><rect width="16" height="16" style="fill:none"/><path d="M8,9,5,8,8,7m7,1L8,5,1,8l7,3,7-3ZM7.52,3a3.86,3.86,0,0,1,1,0,4.87,4.87,0,0,1,2.8,1.2l3.31,1.42a7,7,0,0,0-13.18,0L4.72,4.23A4.87,4.87,0,0,1,7.52,3Zm7.07,7.32-3.31,1.42A4.87,4.87,0,0,1,8.48,13L8,13l-.48,0a4.87,4.87,0,0,1-2.8-1.2L1.41,10.35a7,7,0,0,0,13.18,0Z"/></svg>
